X:1
T:La cumparsita
T:La cumparsita
T:Música de Gerardo Matos Rodríguez
T:Arreglo de Pablo Moro
C:Música de Gerardo Matos Rodríguez
Z:Arreglo de Pablo Moro
%%score { ( 1 3 ) | 2 }
L:1/8
Q:1/4=48
M:2/4
K:Bb
V:1 treble nm="Piano" snm="Pno."
V:3 treble 
V:2 bass 
V:1
 z .[B,DG] .[A,EF].[G,_DE] | .D.[D^Fc] .[DFA].[CDF] | z/ D/E/D/ ^CD | .D.[DGBd] .[DGB].[B,DG] | %4
 z/ D/E/D/ ^CD | .D.[D^Fc] .[DFA].[CDF] | z/ D/E/D/ ^CD | .D.[DGBd] .[DGB].[B,DG] | z/ D/E/D/ ^CD | %9
 .=C.[CEG] .[CE^F].[CEG] | z/ [CE^F]/[CEG]/[CEF]/ [CEG][CE] | .B,.[B,DG] .[B,D^F].[B,DG] | %12
 z/ [B,D^F]/[B,DG]/[B,DF]/ [B,DG][B,D^G] | .[CD^FA].[FAd] .[FA^c].[FAd] | %14
 z/ !>![CD^Fc]B/4A/4 .G.[CDF] | [B,DG] z/ [Dd]/ [=E=e]/[^F^f][Gg]/4[Aa]/4 || %16
 [GBdg]/[Aa]/[Bb] z/ [Gg][Aa]/4[Bb]/4 | [Aa][Gg] [_DE][C=D] | z/ G[Bdg]/4F/4 f/4E/4[GBe]D/ | %19
 [^FAd]>C [FAc]2 | z/ [cea][cea]/4[ceg]/4 [ceg]/4[ce^f]/4[cef]3/2 | %21
 z/ [^FAe][FAe]/4[FAd]/4 [FAd]2 | z [CD^Fc]- [CDFc]/BA/ | G/G/4B/4d/D/ =E/^FG/4A/4 | %24
 [GBdg]/[Aa]/[Bb] z/ [Gg][Aa]/4[Bb]/4 | [Aa][Gg] [_DE][C=D] | z/ G[=Bdg]/4F/4 f/4E/4[GBe]D/ | %27
 [CEGc]4 | [EGc]/e[ceg]/ [ceg]/[ce^f]/[ceg] | B/d[Bdg]/ [Bdg]/[Bd^f]/[Bdg] | z/ d/[ca]/^f/ d/c^F/ | %31
 [B,DG] z !>![D^FAd]2 || [GBdg]/[^F^f]/[Gg]/[Aa]/ B/[_d=fb]/c/[=d^fa]/ | [Bdg][GBd] z2 | %34
 [EGce]/[Dd]/[Ee]/[Ff]/ [Gceg]>[Ee] | [DGBd][DGB] z2 | [B,G]/^F/G/A/ [CB]>A | [DG]D z2 | %38
{EF} [B,E]/D/E/F/ [A,G]>E | D4 | z [GBd] [GBe]>[GBd] | [^FAd]>[FAc] [FAc]/[FAe]/[FAd] | %42
 z [^FAc] [FAd]>[FAc] | [DGc]>[DGB] [DGB]/[DGd]/[DGc] | z [DGB] [DGc]>[DGB] | %45
 [CD^FB]>[CDFA] [CDFA]/[CDFc]/[CDFB] | z [CDA] [CDG][CD^F] | .[B,DG].[B,DG] .[A,EF].[G,_DE] || %48
"^Variación de Luis Moresco" z/4 d/4^c/4d/4^f/4a/4c'/4d'/4 e'/4c'/4d'/4b/4c'/4a/4b/4g/4 | %49
 a/4^f/4g/4e/4=f/4d/4e/4c/4 d/4B/4c/4A/4B/4G/4A/4^F/4 | %50
 G/4D/4G/4A/4B/4A/4B/4d/4 g/4^f/4g/4a/4b/4a/4g/4f/4 | %51
 a/4g/4^f/4a/4g/4=f/4e/4d/4 f/4e/4d/4c/4e/4d/4c/4B/4 | %52
 A/4d/4^c/4d/4^f/4a/4c'/4d'/4 e'/4c'/4d'/4b/4c'/4a/4b/4g/4 | %53
 a/4^f/4g/4e/4=f/4d/4e/4c/4 d/4B/4c/4A/4B/4G/4A/4^F/4 | %54
 G/4D/4G/4A/4B/4A/4B/4d/4 g/4^f/4g/4a/4b/4a/4g/4f/4 | %55
 a/4g/4^f/4a/4g/4=f/4e/4d/4 f/4e/4d/4c/4e/4d/4c/4=B/4 | %56
 c/4G/4^F/4G/4c/4G/4F/4G/4 e/4G/4F/4G/4d/4G/4F/4G/4 | %57
 c/4G/4^F/4G/4[eg]/4G/4F/4G/4 [df]/4G/4F/4G/4[ce]/4G/4F/4G/4 | %58
 [Bd]/4D/4G/4A/4B/4A/4B/4d/4 g/4^f/4g/4a/4b/4a/4g/4f/4 | %59
 a/4g/4^f/4a/4g/4=f/4e/4d/4 f/4e/4d/4c/4e/4d/4c/4B/4 | %60
 A/4d/4^c/4d/4^f/4a/4c'/4d'/4 e'/4c'/4d'/4b/4c'/4a/4b/4g/4 | %61
 a/4^f/4g/4e/4=f/4d/4e/4c/4 d/4B/4c/4A/4B/4G/4A/4^F/4 | .G.[^Fcd] .[GBdg] z |] %63
V:2
 z .D, .C,.B,, | .D,,.A,, .^F,.A,, | .D,,.A,, .^F,.A,, | .G,,.D, .B,.D, | .G,,.D, .B,.D, | %5
 .D,,.A,, .^F,.A,, | .D,,.A,, .^F,.A,, | .G,,.D, .B,.D, | .G,,.D, .B,.D, | .C,,.G,, .E,.G,, | %10
 .C,,.G,, .E,.G,, | .G,,.D, .G,.D, | .G,,.D, .G,.D, | .D,,.A,, .^F,.A,, | D,,2 z .D,, | %15
 G,, z/ D,/ =E,/^F,G,/4A,/4 || [G,B,D]>[^F,B,D] [=F,B,D]2 | [=E,B,D]2 [_E,G,][D,^F,] | %18
 .G,,.D, .B,.D, | .D,,.A,, .^F,.A,, | D,, z z z/ A,,/ | D,, z z .A,, | .D,,.=E,, .^F,,.D,, | %23
 G,, z/ D,/ =E,/^F,G,/4A,/4 | [G,B,D]>[^F,B,D] [=F,B,D]2 | [=E,B,D]2 [_E,G,][D,^F,] | %26
 .G,,.D, .=B,.D, | C,,>G,, A,,/=B,,C,/4D,/4 | .E,.G, .C.C, | .G,,.B,, .D,.B,, | .D,,.^F,, .A,,.D, | %31
 G,,D, !>!C2 ||{G,,D,} B,2 [E,G,_D][D,^F,C] | G,,/D,/=E,/^F,/ G,/A,/B,/=B,/ | CG, E,C, | %35
 G,,B,, D,D,, | [G,,D,]2 [A,,^F,]2 | [B,,G,]2 [=B,,G,]G,, | C,2 F,,2 | B,,E,, A,,D,, | %40
 G,,>B,, .D,.D,, | A,,>C, .D,.D,, | A,,>C, .D,.D,, | G,,>B,, .D,.D,, | G,,>B,, .D,.D,, | %45
 A,,>C, .D,.D,, | A,,>C, .D,.D,, | .G,,.D, .C,.B,, || .D,, z .A,, z | .^F, z .A,, z | %50
 .G,, z .D, z | .B, z .D, z | .D,, z .A,, z | .^F, z .A,, z | .G,, z .D, z | .B, z .D, z | %56
 .C, z .[E,G,] z | .C, z .[E,G,] z | .G,, z .D, z | .B, z .D, z | .D,, z .A,, z | .^F, z .A,, z | %62
 .G,,.[D,,D,] .[G,,,G,,] z |] %63
V:3
 x4 | x4 | x4 | x4 | x4 | x4 | x4 | x4 | x4 | x4 | x4 | x4 | x4 | x4 | x4 | x4 || x4 | x4 | x4 | %19
 x4 | z/{G^G} AA/4=G/4 G/4^F/4F3/2 | z/{^CD} EE/4D/4 D2 | x4 | x4 | x4 | x4 | x4 | x4 | x4 | x4 | %30
 x4 | x4 || x4 | x4 | x4 | x4 | x4 | x4 | x4 | A,G, G,^F, | x4 | x4 | x4 | x4 | x4 | x4 | x4 | %47
 x4 || x4 | x4 | x4 | x4 | x4 | x4 | x4 | x4 | x4 | x4 | x4 | x4 | x4 | x4 | x4 |] %63

